X:1
T:Title
%%score { 1 | 2 }
L:1/8
M:6/8
K:D
V:1 treble nm="Grand Piano"
V:2 bass 
V:1
 z3 z[Q:1/4=94] [DF][FA] | [Fd][Ec][Fd] [Ge][Gd][GB] | [FA][GB][FA] [DF]2 [DF] | %3
 [CE][CE][CE] [GB][FA][EG] | [DF]3- [DF]2 [FA] | [Fd][Ec][Fd] edB | [FA][GB][FA] F2 F | EEE EF^G | %8
[M:5/8] [A,CA]-[A,CA]- [A,CA]3 |[M:1/8] G |[M:3/4] FE D [FA]2 [GB]/[Ac]/ | %11
 [Bd][Ac] [GB] [FA]2 [EG]/[DF]/ | [CE][CE] [CE][GB] [FA][EG] | F4 z D/F/ | %14
 [FA]2 [GB]/[FA]/ [FA]2 [Fd] | ed c B2 A/F/ | [CE][CE] [CE][G,CE] [A,CF][K:bass][G,CE] | %17
[M:2/4] [F,D]4 |] %18
V:2
 z3 z [D,A,][D,A,] | [D,A,][D,A,][D,A,] [D,B,][D,B,][D,D] | [D,D][D,D][D,D] [D,A,]2 [D,A,] | %3
 [A,,A,][A,,A,][A,,A,] [A,,A,][A,,A,][A,,A,] | [D,A,]3- [D,A,]2 [D,D] | %5
 [D,A,][D,A,][D,A,][K:treble] [G,B,G][G,B,G][G,DG] | [D,D][D,D][D,D] [D,A,D]2 [D,A,D] | %7
 [E,A,C][E,A,C][E,A,C] [E,B,D][E,B,D][E,B,D] |[M:5/8] A,,-A,,- A,,3 |[M:1/8] E | %10
[M:3/4] [D,A,D][D,G,C] [D,F,] [D,A,]2 [D,D]/[D,D]/ | [D,D][D,D] [D,D] [D,D]2 [C,A,]/[D,A,]/ | %12
 [A,,A,][A,,A,] [A,,A,][A,,A,] [A,,A,][A,,A,] | [D,A,D]4 z [D,F,A,]/[D,A,D]/ | %14
 [D,D]2 [D,D]/[D,D]/ [D,D]2 [D,A,] | [G,B,G][G,B,G] [G,DG] [G,DG]2[K:bass] [F,D]/[D,A,]/ | %16
 [A,,A,][A,,A,] [A,,A,]A,, A,,A,, |[M:2/4] D,4 |] %18

